X:1
T:Title
%%score ( 1 2 ) { ( 3 5 ) | 4 }
L:1/8
Q:1/4=110
M:4/4
K:D
V:1 treble nm="Grand Piano, Unnamed-000"
V:2 treble 
V:3 bass nm="Choir Pad, Innocents, 77.77"
V:5 bass 
V:4 bass 
V:1
 [DF]3 [CG] [DA]2 [Fd]2 | [Ec]2 B-[EB] [FA]4 | D3 [CE] [DF]2 [A,A]2 | G-[CG] [DF]2 [CE]4 | %4
w: By~The~Parish~Choir,~1850 * * *||||
 [DF]3 [CG] [DA]2 [Fd]2 | [Ec]2 B-[DB] [CA]4 | D3 [CE] [DF]2 [EG]2 | [DF]2 [CE]2 D4- | D4 z4 |] %9
w: |||||
V:2
 x8 | z2 .D2 z4 | x8 | .B,2 z2 z4 | x8 | z2 .E2 z4 | x8 | x8 | x8 |] %9
V:3
 A,3 G, F,2 A,2 | G,A,B,C D4 | F,3 A, A,2 F,2 | G,2 A,2 A,4 | A,3 G, F,2 F,^G, | A,4 A,4 | %6
 A,3 G, A,2 B,2 | A,2 A,2 F,4- | F,4 z4 |] %9
V:4
 D,3 E, z2 D,2 | E,F, G,2 D,4 | B,,3 A,, D,2 z2 | E,2 D,2 A,,4 | D,3 E, z2 B,,2 | C,D, E,2 z4 | %6
 F,3 E, D,2 G,,2 | A,,2 A,,2 D,4- | D,4 z4 |] %9
V:5
 x8 | x8 | x8 | x8 | x8 | z2 ^G,2 z2 =G,2 | x8 | x8 | x8 |] %9

